X: 1045
T: A Theater Dance.
%R: jib
B: Henry Playford "Apollo's Banquet", London 1687 (5th Edition)
F: https://archive.org/details/apollosbanquetco01rugg
Z: 2017 John Chambers <jc:trillian.mit.edu>
M: 6/4
L: 1/8
K: D
% - - - - - - - - - -
a2 |\
a3gf2 e2f2g2 | f3ed2 b4B2 | g3fe2 c3Bc2 | d6- d4c2 |\
B2d2B2 c2d2e2 | f3ed2 e2f2g2 | fga2c2 B3A^G2 | A6- A4 :|
|: e2 |\
e2A2e2 g3ag2 | f3ed2 c2d2e2 | fga2f2 gab2^g2 | a6 A4G2 |\
F2A2F2 G2B2d2 | cde2A2 d2e2f2 | g3fe2 fga2c2 | d6- d4 |]
% - - - - - - - - - -

%%sep 1 1 500
%%sep 1 1 500

